X:1
T:Para Elisa
T:Para Elisa
T:Beethoven
T:Transcripción: Darío Hernández (Febrero 2020) 
C:Transcripción: Darío Hernández
%%score { 1 | 2 }
L:1/8
Q:1/4=70
M:3/4
K:C
V:1 treble nm="Piano" snm="Pno."
V:2 treble-8 
V:1
 z4 e^d |:"^A" e^d eB =dc | A2 z C EA | B2 z E ^GB | c2 z E e^d | e^d eB =dc | A2 z C EA | %7
 B2 z E cB |1 A2 z2 e^d :|2 A2 z B cd ||"^B" e2 z G fe | d2 z F ed | c2 z E dc | B2 EE eE | %14
 ee e'^d ed | e^d ed ed | e^d eB =dc |"^A" A2 z C EA | B2 z E ^GB | c2 z E e^d | e^d eB =dc | %21
 A2 z C EA | B2 z E cB | A4 z2 |] %24
V:2
 z6 |: z6 | A,E A z z2 | E^G B z z2 | A,E A z z2 | z6 | A,E A z z2 | E^G B z z2 |1 A,E A z z2 :|2 %9
 A,E A z z2 || CG c z z2 | B,G B z z2 | A,E A z z2 | E2 z4 | z6 | z6 | z6 | A,E A z z2 | %18
 E^G B z z2 | A,E A z z2 | z6 | A,E A z z2 | E^G B z z2 | A,4 z2 |] %24

